X:129
T:Nuages
C:Django Rienhardt
N:TablEdited by Mike Stangeland
L:1/8
Q:1/4=90
M:4/4
K:G
z8 | z2 ^CD A^G (3z=GF | (3"Eb9"=FFF (3FFF (3FFF E2 | (3"Am7b5"^DDD (3DDD (3"D7b9"DDD =D2 | 
(3"Gmaj7"DDD (3DDD (3DDD (3DDD | "G6"D2 ^CD A^G (3z=GF | (3"Eb9"=FFF (3FFF (3FFF E2 | 
(3"Am7b5"^DDD (3DDD (3"D7b9"DDD =D2 | (3"Gmaj7"DDD (3DDD (3DDD (3DDD | "G6"D2 ^A,B, BA (3AGF | 
(3"B7"AAA (3AAA (3AAA (3AAA | A2 ^A,B, BA (3AGF | (3"Em"GGG (3GGG (3GGG (3GGG | 
"Em7"G2 FG BG (3zED | "A7"(3^CCC (3CCC "Ab7"(3=CCC (3CCC | "A7"^C2 E(3F2 (3G2A2 B2 | 
"D7"(3ddd (3ddd (3ddd (3ddd | d2 ^CD A^G (3z=GF | "Eb9"(3=FFF (3FFF (3FFF E2 | 
(3"Am7b5"^DDD (3DDD "D7b9"D2 =D2 | (3"Gmaj7"DDD (3DDD (3DDD (3DDD | "G6"D2 ^CD d^c (3z=cB | 
(3"Ab7"^AAA (3AAA A2 =A2 | (3"Dm7b5"^GGG (3GGG G2 "G7b9"=G2 | (3"Cmaj7"GGG (3GGG (3GGG (3GGG | 
G2 FG g=f (3z^df | (3"Cm7"ggg (3ggg (3ggg (3ggg | g2 FG g=f (3z^df | (3"Gmaj7"ddd (3ddd (3ddd (3ddd | 
d2 ^CD A^G (3z=GF | (3"Eb9"=FFF (3FFF F2 E2 | (3"Am7b5"^DDD (3DDD "D7"D2 =DB | 
"Gmaj7"G8 | 


